src/components/content/Icon/functional/tick.svg

<svg width="100" height="100" viewBox="0 0 100 100" fill="none" xmlns="http://www.w3.org/2000/svg">
<path d="M45.7299 59.0479H45.6479C45.3819 59.0479 45.1279 58.9419 44.9399 58.7559L36.8319 50.6479C36.6446 50.4603 36.5394 50.2061 36.5394 49.9409C36.5394 49.6758 36.6446 49.4215 36.8319 49.2339C37.0195 49.0466 37.2738 48.9414 37.5389 48.9414C37.804 48.9414 38.0583 49.0466 38.2459 49.2339L45.6879 56.6759L61.2559 41.1079C61.4435 40.9206 61.6978 40.8154 61.9629 40.8154C62.228 40.8154 62.4823 40.9206 62.6699 41.1079C62.8572 41.2955 62.9624 41.5498 62.9624 41.8149C62.9624 42.0801 62.8572 42.3343 62.6699 42.5219L46.4359 58.7559C46.2479 58.9439 45.9939 59.0479 45.7279 59.0479H45.7299Z" fill="#0B301A"/>
<path d="M50.0439 74.6779C49.2739 74.6779 48.4999 74.6419 47.7239 74.5699C41.1599 73.9619 35.2279 70.8339 31.0159 65.7639C26.8059 60.6939 24.8199 54.2859 25.4299 47.7219C26.0379 41.1579 29.1659 35.2259 34.2359 31.0139C39.3059 26.8039 45.7139 24.8179 52.2779 25.4279C58.1539 25.9719 63.6459 28.6059 67.7399 32.8439C67.924 33.0347 68.0249 33.2908 68.0204 33.5559C68.0159 33.821 67.9064 34.0735 67.7159 34.2579C67.5251 34.4421 67.269 34.543 67.0039 34.5385C66.7388 34.534 66.4863 34.4244 66.3019 34.2339C62.5399 30.3399 57.4939 27.9199 52.0939 27.4199C46.0619 26.8619 40.1739 28.6839 35.5139 32.5539C30.8539 36.4239 27.9799 41.8759 27.4219 47.9079C26.8639 53.9399 28.6859 59.8279 32.5559 64.4879C36.4259 69.1479 41.8779 72.0219 47.9099 72.5799C48.6239 72.6459 49.3359 72.6779 50.0419 72.6779C55.3179 72.6779 60.3799 70.8579 64.4879 67.4459C69.1479 63.5759 72.0219 58.1239 72.5799 52.0919C73.0559 46.9499 71.7479 41.7539 68.8959 37.4619C68.5899 37.0019 68.7159 36.3819 69.1759 36.0759C69.6359 35.7699 70.2579 35.8959 70.5619 36.3559C73.6659 41.0279 75.0899 46.6819 74.5719 52.2779C73.9639 58.8419 70.8359 64.7739 65.7659 68.9859C61.2939 72.6979 55.7839 74.6799 50.0459 74.6799L50.0439 74.6779Z" fill="#0B301A"/>
</svg>

<svg xmlns="http://www.w3.org/2000/svg" width="100" height="100" fill="none" viewBox="0 0 100 100"><path fill="#0b301a" d="M45.73 59.048h-.082c-.266 0-.52-.106-.708-.292l-8.108-8.108a1 1 0 0 1 1.414-1.414l7.442 7.442 15.568-15.568a1 1 0 0 1 1.414 1.414L46.436 58.756a1 1 0 0 1-.708.292z"/><path fill="#0b301a" d="M50.044 74.678q-1.155 0-2.32-.108c-6.564-.608-12.496-3.736-16.708-8.806-4.21-5.07-6.196-11.478-5.586-18.042.608-6.564 3.736-12.496 8.806-16.708 5.07-4.21 11.478-6.196 18.042-5.586a24.67 24.67 0 0 1 15.462 7.416 1.001 1.001 0 0 1-1.438 1.39 22.67 22.67 0 0 0-14.208-6.814 22.53 22.53 0 0 0-16.58 5.134 22.52 22.52 0 0 0-8.092 15.354 22.53 22.53 0 0 0 5.134 16.58A22.52 22.52 0 0 0 47.91 72.58a23 23 0 0 0 2.132.098c5.276 0 10.338-1.82 14.446-5.232a22.52 22.52 0 0 0 8.092-15.354 22.73 22.73 0 0 0-3.684-14.63 1 1 0 1 1 1.666-1.106 24.74 24.74 0 0 1 4.01 15.922c-.608 6.564-3.736 12.496-8.806 16.708-4.472 3.712-9.982 5.694-15.72 5.694z"/></svg>
